images/Tech_ansible.svg

<svg width="123" height="40" viewBox="0 0 123 40" fill="none" xmlns="http://www.w3.org/2000/svg">
<path d="M40.0011 19.9984C40 31.0452 31.045 40 19.9995 40C9.02825 39.9989 0.000536358 30.9707 0 19.9995C0 8.95397 8.95504 0 19.9995 0C31.0439 0 39.9989 8.95504 39.9989 20.0016" fill="#989898"/>
<path d="M20.3439 12.2176L25.5198 24.992L17.7024 18.8462L20.3439 12.2176ZM29.5382 27.934L21.5765 8.77496C21.3496 8.22278 20.9061 7.9302 20.3429 7.9302C19.7856 7.91465 19.2758 8.25443 19.0757 8.77496L10.3376 29.7911H13.3268L16.7849 21.1268L27.1077 29.4661C27.5234 29.8013 27.8229 29.9531 28.2118 29.9531C28.9917 29.9531 29.6734 29.3687 29.6734 28.525C29.6734 28.3877 29.624 28.1697 29.5371 27.9353L29.5382 27.934Z" fill="white"/>
<path d="M67.4164 25.9846C67.2096 25.9846 66.9873 25.932 66.832 25.7231L60.2024 17.0051V25.8974H58.6893V14.9468C58.6893 14.4998 59.0503 14.1624 59.4627 14.1624C59.703 14.1624 59.9095 14.2327 60.0637 14.4416L66.6757 23.1419V14.2852H68.1874V25.2181C68.1874 25.2208 68.1874 25.2232 68.1874 25.2259C68.1874 25.6429 67.8444 25.9859 67.4276 25.9859C67.4231 25.9859 67.4185 25.9856 67.4142 25.9856L67.4164 25.9846ZM76.1612 26.0908C74.6505 26.0908 73.0693 25.7778 71.5933 25.2192L71.9542 23.9644C73.3107 24.4112 74.7881 24.7129 76.1612 24.7129C78.0676 24.7129 79.0642 24.0336 79.0642 23.0748C79.0642 22.2032 78.291 21.7674 75.6294 20.5116C72.9677 19.2554 71.9196 18.4554 71.9196 16.8855C71.9196 14.9155 73.4303 14.1144 76.2818 14.1144C77.4664 14.1144 79.2988 14.3601 80.3359 14.673L80.0956 15.9624C78.8572 15.6669 77.5897 15.5095 76.3167 15.4931C74.3075 15.4931 73.4828 15.8764 73.4828 16.8364C73.4828 17.7772 74.0841 18.1773 76.9 19.4868C79.8722 20.8645 80.6263 21.5618 80.6263 22.9922C80.6263 25.0671 78.6676 26.0964 76.1612 26.0964V26.0908ZM84.0322 14.2662H85.5968V25.8784H84.0322V14.2662ZM96.0332 20.4847H92.1513V24.4259H96.0332C97.3554 24.4259 98.1631 23.5878 98.1631 22.4199C98.1631 21.3217 97.3218 20.4847 96.0332 20.4847ZM95.2767 15.4631H92.1513V19.1774H95.2767C96.5304 19.1774 97.4412 18.375 97.4412 17.2588C97.4412 16.1604 96.6511 15.4631 95.2767 15.4631ZM96.0501 25.7499H91.3792C90.9322 25.7499 90.5892 25.4013 90.5892 24.9655V14.9222C90.594 14.4915 90.9488 14.1396 91.3792 14.1377H95.2432C97.6123 14.1377 99.0202 15.3054 99.0202 17.1368C99.0202 18.1425 98.4358 19.0543 97.5428 19.5952C98.866 19.9975 99.7588 21.0949 99.7588 22.4199C99.7588 24.2682 98.2312 25.7499 96.049 25.7499H96.0501ZM104.318 25.6214C103.889 25.6214 103.536 25.2548 103.536 24.837V13.998H105.1V24.198H111.338V25.6102L104.318 25.6214ZM118.617 25.685C115.421 25.685 113.499 24.5007 113.499 22.1094C113.499 20.9763 114.136 19.8947 115.372 19.3895C114.367 18.7617 113.86 17.8721 113.86 16.8954C113.86 14.7334 115.528 13.7041 118.665 13.7041C119.928 13.7097 121.191 13.8438 122.427 14.1064L122.254 15.3971C120.949 15.1882 119.729 15.0662 118.545 15.0662C116.518 15.0662 115.436 15.6251 115.436 16.966C115.436 18.0296 116.433 18.8655 117.756 18.8655H120.435C120.439 18.8655 120.442 18.8655 120.446 18.8655C120.807 18.8655 121.105 19.1632 121.105 19.5247C121.105 19.5257 121.105 19.5271 121.105 19.5281C121.105 19.9114 120.814 20.2074 120.434 20.2074H117.549C116.037 20.2074 115.076 20.9562 115.076 22.1072C115.076 23.7978 116.638 24.3039 118.596 24.3039C119.661 24.3039 121.104 24.1655 122.284 23.8861L122.507 25.1578C121.247 25.4975 119.948 25.6737 118.642 25.6818L118.617 25.685ZM50.1411 16.5648L52.8789 23.4234L48.7444 20.116L50.1411 16.5648ZM55.0042 25.0036L50.7938 14.7165C50.6731 14.4204 50.4329 14.263 50.1411 14.263C49.845 14.2576 49.576 14.4397 49.4706 14.7165L44.8671 26.3085L46.4314 26.0001L48.2606 21.3485L53.7191 25.8258C53.9393 26.0047 54.0967 26.0873 54.3035 26.0873C54.3075 26.0875 54.3118 26.0875 54.3158 26.0875C54.7326 26.0875 55.0756 25.7445 55.0756 25.3275C55.0756 25.3251 55.0756 25.3224 55.0756 25.3197C55.0686 25.2111 55.0445 25.1044 55.0042 25.0036Z" fill="#989898"/>
</svg>

<?xml version="1.0" encoding="UTF-8" standalone="no"?><!DOCTYPE svg PUBLIC "-//W3C//DTD SVG 1.1//EN" "http://www.w3.org/Graphics/SVG/1.1/DTD/svg11.dtd"><svg width="100%" height="100%" viewBox="0 0 123 40" version="1.1" xmlns="http://www.w3.org/2000/svg" xmlns:xlink="http://www.w3.org/1999/xlink" xml:space="preserve" xmlns:serif="http://www.serif.com/" style="fill-rule:evenodd;clip-rule:evenodd;stroke-linejoin:round;stroke-miterlimit:2;"><path d="M40.001,19.998c-0.001,11.047 -8.956,20.002 -20.001,20.002c-10.972,-0.001 -19.999,-9.029 -20,-20.001c0,-11.045 8.955,-19.999 20,-19.999c11.044,0 19.999,8.955 19.999,20.002l0.002,-0.004Zm-10.463,7.936l-7.961,-19.159c-0.227,-0.552 -0.671,-0.845 -1.234,-0.845c-0.557,-0.015 -1.067,0.324 -1.267,0.845l-8.738,21.016l2.989,0l3.458,-8.664l10.323,8.339c0.415,0.335 0.715,0.487 1.104,0.487c0.78,0 1.461,-0.584 1.461,-1.428c0,-0.137 -0.049,-0.355 -0.136,-0.59l0.001,-0.001Zm-9.194,-15.716l5.176,12.774l-7.818,-6.146l2.642,-6.628Z" style="fill:#9ea5a7;fill-rule:nonzero;"/><path d="M67.416,25.985c-0.206,0 -0.429,-0.053 -0.584,-0.262l-6.63,-8.718l0,8.892l-1.513,0l0,-10.95c0,-0.447 0.361,-0.785 0.774,-0.785c0.24,0 0.447,0.071 0.601,0.28l6.612,8.7l0,-8.857l1.511,0l0,10.941c0,0.417 -0.343,0.76 -0.759,0.76l-0.014,0l0.002,-0.001Zm8.745,0.106c-1.51,0 -3.092,-0.313 -4.568,-0.872l0.361,-1.255c1.357,0.447 2.834,0.749 4.207,0.749c1.907,0 2.903,-0.679 2.903,-1.638c0,-0.872 -0.773,-1.308 -3.435,-2.563c-2.661,-1.257 -3.709,-2.057 -3.709,-3.627c0,-1.97 1.51,-2.771 4.362,-2.771c1.184,0 3.017,0.246 4.054,0.559l-0.24,1.289c-1.239,-0.295 -2.506,-0.453 -3.779,-0.469c-2.009,0 -2.834,0.383 -2.834,1.343c0,0.941 0.601,1.341 3.417,2.651c2.972,1.378 3.726,2.075 3.726,3.505c0,2.075 -1.958,3.104 -4.465,3.104l0,-0.005Zm7.871,-11.825l1.565,0l0,11.612l-1.565,0l0,-11.612Zm12.001,6.219l-3.882,0l0,3.941l3.882,0c1.322,0 2.13,-0.838 2.13,-2.006c0,-1.098 -0.841,-1.935 -2.13,-1.935Zm-0.756,-5.022l-3.126,0l0,3.714l3.126,0c1.253,0 2.164,-0.802 2.164,-1.918c0,-1.099 -0.79,-1.796 -2.164,-1.796Zm0.773,10.287l-4.671,0c-0.447,0 -0.79,-0.349 -0.79,-0.785l0,-10.043c0.005,-0.43 0.36,-0.782 0.79,-0.784l3.864,0c2.369,0 3.777,1.167 3.777,2.999c0,1.006 -0.584,1.917 -1.477,2.458c1.323,0.402 2.216,1.5 2.216,2.825c0,1.848 -1.528,3.33 -3.71,3.33l0.001,0Zm8.268,-0.129c-0.429,0 -0.782,-0.366 -0.782,-0.784l0,-10.839l1.564,0l0,10.2l6.238,0l0,1.412l-7.02,0.011Zm14.299,0.064c-3.196,0 -5.118,-1.184 -5.118,-3.576c0,-1.133 0.637,-2.214 1.873,-2.719c-1.005,-0.628 -1.512,-1.518 -1.512,-2.495c0,-2.162 1.668,-3.191 4.805,-3.191c1.263,0.006 2.526,0.14 3.762,0.402l-0.173,1.291c-1.305,-0.209 -2.525,-0.331 -3.709,-0.331c-2.027,0 -3.109,0.559 -3.109,1.9c0,1.064 0.997,1.9 2.32,1.9l2.69,0c0.361,0 0.659,0.297 0.659,0.659l0,0.003c0,0.383 -0.291,0.679 -0.671,0.679l-2.885,0c-1.512,0 -2.473,0.749 -2.473,1.9c0,1.691 1.562,2.197 3.52,2.197c1.065,0 2.508,-0.138 3.688,-0.418l0.223,1.272c-1.26,0.34 -2.559,0.516 -3.865,0.524l-0.025,0.003Zm-68.476,-9.12l2.738,6.858l-4.135,-3.307l1.397,-3.551Zm4.863,8.439l-4.21,-10.287c-0.121,-0.297 -0.361,-0.454 -0.653,-0.454c-0.296,-0.005 -0.565,0.177 -0.67,0.454l-4.604,11.592l1.564,-0.309l1.83,-4.651l5.458,4.477c0.22,0.179 0.378,0.261 0.585,0.261c0.004,0.001 0.008,0.001 0.012,0.001c0.417,0 0.76,-0.343 0.76,-0.76l0,-0.008c-0.007,-0.109 -0.031,-0.216 -0.072,-0.316Z" style="fill:#9ea5a7;fill-rule:nonzero;"/></svg>
